trunk/Samples/words/hussain1.svg

<?xml version="1.0" encoding="UTF-8" standalone="no"?>
<svg>
  <path
     style="fill:#000000;stroke:none"
     d="M 109.093,37.288215 L 109.093,38.553215 C 109.093,38.553215 114.741,38.727215 118.122,38.553215 C 126.411,38.129215 145.74,29.673215 151.776,26.460215 C 153.555,25.513215 162.628,20.591215 164.719,18.052215 C 165.521,17.078215 167.818,13.085215 168.375,13.892215 C 168.5,14.073215 168.456,14.538215 168.375,15.030215 C 166.979,23.479215 164.529,23.970215 167.189,28.120215 C 168.189,29.679215 170.734,31.277215 171.932,29.543215 C 173.871,26.733215 173.509,21.891215 171.458,21.006215 C 169.557,20.186215 168.71,20.954215 168.849,19.393215 C 169.003,17.670215 170.217,14.677215 170.746,11.853215 C 171.415,8.2812146 171.46,1.3942146 168.536,0.13921457 C 165.861,-1.0097854 162.664,5.2682146 163.158,8.1062146 C 163.243,8.5932146 163.383,9.0052146 163.869,9.6242146 C 164.673,10.646215 166.422,12.233215 166.422,12.233215 C 166.422,12.233215 164.683,14.115215 163.158,15.552215 C 155.258,22.999215 125.86,33.031215 117.582,35.039215 C 115.272,35.600215 112.89,36.126215 110.503,36.459215 C 109.234,36.637215 109.093,36.720215 109.093,37.288215 L 109.093,37.288215 zM 80.517,58.661215 L 78.7402,60.797215 C 78.0432,61.635215 77.3806,62.415215 76.843,62.838215 C 74.5377,64.651215 67.6769,67.135215 64.5123,68.055215 C 50.2221,72.206215 34.1676,72.261215 21.3548,68.529215 C 17.7003,67.464215 9.54,64.834215 7.066,62.448215 L 1.1546319e-14,56.475215 L 1.44,60.301215 C 4.2967,67.892215 14.4539,74.210215 20.8805,75.880215 C 31.1345,78.545215 46.472,77.907215 57.1738,76.324215 C 70.3442,74.376215 85.0496,69.463215 84.3964,53.023215 C 84.3683,52.317215 84.3735,51.716215 84.6702,51.211215 C 85.3605,50.036215 87.6287,49.379215 89.2148,48.188215 C 89.4715,47.996215 90.3719,47.240215 90.6266,46.770215 C 90.7703,46.505215 90.8115,46.476215 91.0389,46.476215 L 91.545,46.476215 C 91.545,46.476215 91.0173,49.370215 91.0708,51.408215 C 91.1966,56.198215 94.6588,58.568215 99.1332,59.755215 C 102.831,60.736215 106.147,60.661215 110.103,58.669215 C 110.695,58.371215 111.303,58.015215 111.887,57.712215 L 114.004,56.612215 L 115.908,58.345215 C 117.721,59.891215 120.523,60.789215 122.22,60.229215 C 123.39,59.843215 124.282,59.201215 125.096,58.753215 L 126.769,57.834215 L 128.75,59.165215 C 129.362,59.576215 129.977,60.018215 130.529,60.229215 C 131.732,60.690215 133.881,59.850215 135.411,58.462215 L 136.585,57.398215 L 140.066,59.083215 C 143.295,60.645215 146.3,61.138215 149.12,60.704215 C 153.181,60.078215 157.598,57.738215 162.115,57.384215 C 164.259,57.215215 170.762,58.493215 175.055,59.259215 C 176.316,59.484215 176.496,59.459215 176.86,59.015215 C 177.129,58.685215 177.283,58.336215 177.485,57.907215 C 178.323,56.132215 179.997,52.979215 179.997,52.979215 C 179.997,52.979215 178.111,51.670215 176.437,50.981215 C 173.697,49.853215 170.552,50.717215 168.375,50.033215 C 166.029,49.295215 164.193,46.574215 162.041,44.256215 C 159.356,41.364215 158.171,40.718215 154.527,40.310215 C 150.713,39.884215 149.425,40.286215 147.745,43.156215 C 147.102,44.253215 146.614,45.345215 146.559,47.235215 C 146.543,47.768215 146.559,48.373215 146.559,48.373215 L 153.047,48.373215 C 154.327,48.373215 154.543,48.403215 155.207,48.673215 C 155.739,48.889215 157.182,49.897215 157.297,50.206215 C 157.454,50.627215 157.467,51.380215 157.467,51.380215 C 157.467,51.380215 153.548,52.714215 151.207,53.115215 C 149.099,53.477215 143.732,52.709215 141.861,50.918215 C 140.318,49.440215 139.845,47.787215 138.481,48.617215 C 137.511,49.208215 136.678,51.037215 135.651,51.930215 C 134.442,52.980215 132.247,52.908215 130.908,51.455215 C 129.846,50.303215 129.419,48.730215 128.348,49.321215 C 127.619,49.723215 126.994,51.172215 126.166,51.930215 C 124.738,53.235215 122.119,52.644215 120.001,51.930215 C 119.542,51.775215 119.094,51.607215 118.697,51.338215 C 118.163,50.974215 118.119,50.833215 118.261,49.923215 L 118.578,47.899215 C 118.578,47.899215 118.037,48.019215 117.547,48.162215 C 114.738,48.979215 113.578,50.510215 111.938,51.455215 C 106.831,54.398215 96.1428,52.373215 94.8648,46.324215 C 94.4098,44.170215 95.0617,41.527215 94.8648,39.191215 C 94.6561,36.714215 91.4679,26.937215 88.8607,26.083215 C 86.6705,25.365215 86.2321,28.186215 85.8539,30.636215 C 85.6964,31.656215 85.5842,32.519215 85.8539,33.358215 C 86.3324,34.846215 88.0127,36.257215 88.9366,37.939215 C 90.3359,40.487215 89.9968,41.267215 87.2767,42.682215 C 86.284,43.198215 85.6219,43.492215 84.526,43.156215 C 81.9722,42.373215 79.8975,39.449215 78.5029,41.259215 C 77.1113,43.065215 77.0887,45.662215 77.3173,47.434215 C 77.5483,49.225215 78.5423,52.945215 79.4158,55.473215 L 80.517,58.661215 L 80.517,58.661215 zM 156.518,64.415215 L 156.518,65.933215 L 158.89,65.933215 L 158.89,64.985215 L 160.787,64.985215 C 160.787,64.985215 160.855,65.632215 160.787,66.123215 C 160.668,66.972215 160.139,67.355215 159.684,67.886215 C 158.422,69.362215 157.572,72.225215 157.799,73.997215 C 157.927,74.994215 158.028,75.183215 158.808,75.879215 C 161.201,78.016215 163.849,78.060215 166.004,77.078215 C 168.629,75.882215 173.149,73.317215 174.066,70.201215 C 174.126,69.998215 174.151,69.814215 174.066,69.727215 C 173.921,69.579215 173.453,69.714215 172.994,69.894215 C 168.098,71.819215 166.04,75.438215 162.21,72.573215 C 160.87,71.571215 160.472,70.766215 160.916,69.616215 C 162.05,66.679215 165.6,63.886215 163.632,61.191215 C 162.064,59.042215 158.376,60.525215 157.23,62.139215 C 157.018,62.437215 156.817,62.769215 156.698,63.124215 C 156.536,63.603215 156.518,63.732215 156.518,64.415215 L 156.518,64.415215 zM 94.0469,73.671215 L 98.0717,77.696215 L 103.864,71.903215 L 98.0717,66.111215 L 94.0469,70.136215 L 90.0221,66.111215 L 84.2297,71.903215 L 90.0221,77.696215 L 94.0469,73.671215 zM 102.848,20.589215 L 102.4,9.4962146 C 102.334,7.8502146 102.308,7.5642146 102.139,6.6322146 C 101.62,3.7742146 100.226,2.2092146 98.7689,1.1992146 C 96.9155,-0.08578543 95.501,-0.56278543 93.5908,1.2462146 C 92.0201,2.7332146 91.8722,8.1182146 92.4896,8.9602146 C 92.9503,9.5882146 94.1709,9.5312146 95.6483,9.0812146 C 99.3384,7.9562146 99.7082,8.2162146 100.669,13.280215 C 101.126,15.687215 101.18,17.942215 100.955,20.362215 C 100.478,25.503215 99.3574,28.003215 101.554,31.020215 C 102.468,32.276215 103.423,32.466215 105.509,31.909215 C 106.991,31.513215 107.285,30.619215 107.906,27.956215 C 108.344,26.081215 108.69,24.402215 108.577,22.533215 C 108.355,18.824215 105.266,11.853215 108.989,10.122215 C 109.677,9.8022146 110.57,10.011215 111.34,10.229215 C 112.379,10.522215 112.555,10.389215 113.102,8.8972146 C 113.552,7.6712146 114.073,6.5422146 114.359,5.2222146 C 115.433,0.26621457 113.788,-1.1317854 110.487,0.89821457 C 106.701,3.2262146 105,13.203215 105.809,19.891215 C 106.057,22.648215 106.328,25.131215 106.328,25.131215 C 106.328,25.131215 106.102,25.127215 105.832,25.093215 C 104.772,24.957215 102.951,23.131215 102.848,20.589215 L 102.848,20.589215 zM 77.7433,32.036215 L 83.5356,26.244215 L 77.7433,20.451215 L 71.951,26.244215 L 77.7433,32.036215 zM 79.8628,8.7122146 L 75.0398,13.503215 C 74.2383,14.299215 74.1243,14.442215 73.9001,14.932215 C 73.586,15.619215 73.4774,16.767215 73.6317,16.923215 C 74.1313,17.427215 75.8974,16.204215 76.5122,15.750215 C 81.896,11.780215 84.3485,9.2792146 85.219,4.1382146 C 85.6615,1.5242146 84.2777,0.51321457 81.8293,0.18021457 C 77.9449,-0.34878543 74.0902,0.19221457 72.5812,3.1162146 C 72.8167,14.282215 73.1484,7.8972146 76.4425,7.1042146 C 80.107,6.2222146 84.0473,4.2642146 79.8628,8.7122146 L 79.8628,8.7122146 zM 119.356,75.312215 C 118.997,77.556215 119.434,78.106215 120.925,77.418215 C 121.94,76.949215 135.042,69.328215 136.955,67.046215 C 137.726,66.127215 138.495,64.501215 138.766,63.038215 C 138.933,62.137215 138.663,62.169215 137.693,62.530215 C 135.444,63.366215 120.621,72.389215 120.157,73.204215 C 119.723,73.966215 119.445,74.756215 119.356,75.312215 L 119.356,75.312215 zM 128.499,20.267215 C 131.075,22.531215 134.821,23.709215 136.296,21.499215 C 137.254,20.065215 138.813,17.075215 138.813,17.075215 C 138.813,17.075215 137.228,14.681215 135.906,13.652215 C 135.018,12.960215 133.322,12.672215 132.32,13.216215 C 131.434,13.697215 130.401,15.087215 129.841,14.518215 C 129.492,14.164215 129.905,12.769215 130.408,11.462215 C 131.262,9.2492146 135.078,4.4432146 130.418,0.34621457 C 130.398,0.33921457 130.377,0.33421457 130.357,0.32921457 L 129.64,0.00021456561 L 128.889,0.47321457 C 127.718,0.82121457 127.942,3.5612146 128.324,3.9352146 C 128.531,4.1382146 128.829,4.7422146 129.111,5.2882146 C 129.736,8.5392146 129.233,11.329215 127.96,14.434215 C 127.451,15.675215 127.08,16.941215 127.263,18.327215 C 127.378,19.197215 127.502,19.391215 128.499,20.267215 L 128.499,20.267215 zM 165.06993,5.3158312 C 167.05129,5.0957328 167.2835,5.6477816 167.94524,6.8435949 C 168.33405,7.5461916 168.56824,8.4129902 167.87362,9.0534251 C 165.86895,7.9859154 165.43668,6.6563211 165.06993,5.3158312 z" />
</svg>

<?xml version="1.0" encoding="UTF-8" standalone="no"?>
<!-- Created with sK1/UniConvertor (http://sk1project.org/) -->

<svg
   xmlns:dc="http://purl.org/dc/elements/1.1/"
   xmlns:cc="http://creativecommons.org/ns#"
   xmlns:rdf="http://www.w3.org/1999/02/22-rdf-syntax-ns#"
   xmlns:svg="http://www.w3.org/2000/svg"
   xmlns="http://www.w3.org/2000/svg"
   xmlns:sodipodi="http://sodipodi.sourceforge.net/DTD/sodipodi-0.dtd"
   xmlns:inkscape="http://www.inkscape.org/namespaces/inkscape"
   width="595.276pt"
   height="841.89pt"
   viewBox="0 0 595.276 841.89"
   fill-rule="evenodd"
   id="svg2"
   version="1.1"
   inkscape:version="0.48.0 r9654"
   sodipodi:docname="hussain.svg">
  <metadata
     id="metadata14">
    <rdf:RDF>
      <cc:Work
         rdf:about="">
        <dc:format>image/svg+xml</dc:format>
        <dc:type
           rdf:resource="http://purl.org/dc/dcmitype/StillImage" />
      </cc:Work>
    </rdf:RDF>
  </metadata>
  <defs
     id="defs12" />
  <sodipodi:namedview
     pagecolor="#ffffff"
     bordercolor="#666666"
     borderopacity="1"
     objecttolerance="10"
     gridtolerance="10"
     guidetolerance="10"
     inkscape:pageopacity="0"
     inkscape:pageshadow="2"
     inkscape:window-width="640"
     inkscape:window-height="480"
     id="namedview10"
     showgrid="false"
     inkscape:zoom="0.24801339"
     inkscape:cx="-109.78134"
     inkscape:cy="526.18127"
     inkscape:window-x="0"
     inkscape:window-y="0"
     inkscape:window-maximized="0"
     inkscape:current-layer="svg2" />
  <path
     inkscape:connector-curvature="0"
     id="path6"
     d="m 386.48,482.848 0,-1.423 1.423,0 0,1.897 -0.949,0 0,-0.474 -0.474,0 z"
     style="fill:#000000;stroke:none" />
  <path
     inkscape:connector-curvature="0"
     id="path8"
     d="m 109.093,37.288215 0,1.265 c 0,0 5.648,0.174 9.029,0 8.289,-0.424 27.618,-8.88 33.654,-12.093 1.779,-0.947 10.852,-5.869 12.943,-8.408 0.802,-0.974 3.099,-4.967 3.656,-4.16 0.125,0.181 0.081,0.646 0,1.138 -1.396,8.449 -3.846,8.94 -1.186,13.09 1,1.559 3.545,3.157 4.743,1.423 1.939,-2.81 1.577,-7.652 -0.474,-8.537 -1.901,-0.82 -2.748,-0.052 -2.609,-1.613 0.154,-1.723 1.368,-4.716 1.897,-7.54 0.669,-3.5720004 0.714,-10.4590004 -2.21,-11.71400043 -2.675,-1.14899997 -5.872,5.12900003 -5.378,7.96700003 0.085,0.487 0.225,0.899 0.711,1.518 0.804,1.0220004 2.553,2.6090004 2.553,2.6090004 0,0 -1.739,1.882 -3.264,3.319 -7.9,7.447 -37.298,17.479 -45.576,19.487 -2.31,0.561 -4.692,1.087 -7.079,1.42 -1.269,0.178 -1.41,0.261 -1.41,0.829 z m -28.576,21.373 -1.7768,2.136 c -0.697,0.838 -1.3596,1.618 -1.8972,2.041 -2.3053,1.813 -9.1661,4.297 -12.3307,5.217 -14.2902,4.151 -30.3447,4.206 -43.1575,0.474 -3.6545,-1.065 -11.8148,-3.695 -14.2888,-6.081 l -7.066,-5.973 1.44,3.826 c 2.8567,7.591 13.0139,13.909 19.4405,15.579 10.254,2.665 25.5915,2.027 36.2933,0.444 13.1704,-1.948 27.8758,-6.861 27.2226,-23.301 -0.0281,-0.706 -0.0229,-1.307 0.2738,-1.812 0.6903,-1.175 2.9585,-1.832 4.5446,-3.023 0.2567,-0.192 1.1571,-0.948 1.4118,-1.418 0.1437,-0.265 0.1849,-0.294 0.4123,-0.294 l 0.5061,0 c 0,0 -0.5277,2.894 -0.4742,4.932 0.1258,4.79 3.588,7.16 8.0624,8.347 3.6978,0.981 7.0138,0.906 10.9698,-1.086 0.592,-0.298 1.2,-0.654 1.784,-0.957 l 2.117,-1.1 1.904,1.733 c 1.813,1.546 4.615,2.444 6.312,1.884 1.17,-0.386 2.062,-1.028 2.876,-1.476 l 1.673,-0.919 1.981,1.331 c 0.612,0.411 1.227,0.853 1.779,1.064 1.203,0.461 3.352,-0.379 4.882,-1.767 l 1.174,-1.064 3.481,1.685 c 3.229,1.562 6.234,2.055 9.054,1.621 4.061,-0.626 8.478,-2.966 12.995,-3.32 2.144,-0.169 8.647,1.109 12.94,1.875 1.261,0.225 1.441,0.2 1.805,-0.244 0.269,-0.33 0.423,-0.679 0.625,-1.108 0.838,-1.775 2.512,-4.928 2.512,-4.928 0,0 -1.886,-1.309 -3.56,-1.998 -2.74,-1.128 -5.885,-0.264 -8.062,-0.948 -2.346,-0.738 -4.182,-3.459 -6.334,-5.777 -2.685,-2.892 -3.87,-3.538 -7.514,-3.946 -3.814,-0.426 -5.102,-0.024 -6.782,2.846 -0.643,1.097 -1.131,2.189 -1.186,4.079 -0.016,0.533 0,1.138 0,1.138 l 6.488,0 c 1.28,0 1.496,0.03 2.16,0.3 0.532,0.216 1.975,1.224 2.09,1.533 0.157,0.421 0.17,1.174 0.17,1.174 0,0 -3.919,1.334 -6.26,1.735 -2.108,0.362 -7.475,-0.406 -9.346,-2.197 -1.543,-1.478 -2.016,-3.131 -3.38,-2.301 -0.97,0.591 -1.803,2.42 -2.83,3.313 -1.209,1.05 -3.404,0.978 -4.743,-0.475 -1.062,-1.152 -1.489,-2.725 -2.56,-2.134 -0.729,0.402 -1.354,1.851 -2.182,2.609 -1.428,1.305 -4.047,0.714 -6.165,0 -0.459,-0.155 -0.907,-0.323 -1.304,-0.592 -0.534,-0.364 -0.578,-0.505 -0.436,-1.415 l 0.317,-2.024 c 0,0 -0.541,0.12 -1.031,0.263 -2.809,0.817 -3.969,2.348 -5.609,3.293 -5.107,2.943 -15.7952,0.918 -17.0732,-5.131 -0.455,-2.154 0.1969,-4.797 0,-7.133 -0.2087,-2.477 -3.3969,-12.254 -6.0041,-13.108 -2.1902,-0.718 -2.6286,2.103 -3.0068,4.553 -0.1575,1.02 -0.2697,1.883 0,2.722 0.4785,1.488 2.1588,2.899 3.0827,4.581 1.3993,2.548 1.0602,3.328 -1.6599,4.743 -0.9927,0.516 -1.6548,0.81 -2.7507,0.474 -2.5538,-0.783 -4.6285,-3.707 -6.0231,-1.897 -1.3916,1.806 -1.4142,4.403 -1.1856,6.175 0.231,1.791 1.225,5.511 2.0985,8.039 l 1.1012,3.188 z m 76.001,5.754 0,1.518 2.372,0 0,-0.948 1.897,0 c 0,0 0.068,0.647 0,1.138 -0.119,0.849 -0.648,1.232 -1.103,1.763 -1.262,1.476 -2.112,4.339 -1.885,6.111 0.128,0.997 0.229,1.186 1.009,1.882 2.393,2.137 5.041,2.181 7.196,1.199 2.625,-1.196 7.145,-3.761 8.062,-6.877 0.06,-0.203 0.085,-0.387 0,-0.474 -0.145,-0.148 -0.613,-0.013 -1.072,0.167 -4.896,1.925 -6.954,5.544 -10.784,2.679 -1.34,-1.002 -1.738,-1.807 -1.294,-2.957 1.134,-2.937 4.684,-5.73 2.716,-8.425 -1.568,-2.149 -5.256,-0.666 -6.402,0.948 -0.212,0.298 -0.413,0.63 -0.532,0.985 -0.162,0.479 -0.18,0.608 -0.18,1.291 z m -62.4711,9.256 4.0248,4.025 5.7923,-5.793 -5.7923,-5.792 -4.0248,4.025 -4.0248,-4.025 -5.7924,5.792 5.7924,5.793 4.0248,-4.025 z m 8.8011,-53.082 L 102.4,9.4962146 c -0.066,-1.646 -0.092,-1.932 -0.261,-2.864 -0.519,-2.858 -1.913,-4.423 -3.3701,-5.433 -1.8534,-1.28500003 -3.2679,-1.76200003 -5.1781,0.047 -1.5707,1.487 -1.7186,6.872 -1.1012,7.714 0.4607,0.628 1.6813,0.571 3.1587,0.121 3.6901,-1.125 4.0599,-0.865 5.0207,4.1990004 0.457,2.407 0.511,4.662 0.286,7.082 -0.477,5.141 -1.5976,7.641 0.599,10.658 0.914,1.256 1.869,1.446 3.955,0.889 1.482,-0.396 1.776,-1.29 2.397,-3.953 0.438,-1.875 0.784,-3.554 0.671,-5.423 -0.222,-3.709 -3.311,-10.68 0.412,-12.411 0.688,-0.3200004 1.581,-0.111 2.351,0.107 1.039,0.293 1.215,0.16 1.762,-1.3320004 0.45,-1.226 0.971,-2.355 1.257,-3.675 1.074,-4.95600003 -0.571,-6.354 -3.872,-4.32400003 C 106.701,3.2262146 105,13.203215 105.809,19.891215 c 0.248,2.757 0.519,5.24 0.519,5.24 0,0 -0.226,-0.004 -0.496,-0.038 -1.06,-0.136 -2.881,-1.962 -2.984,-4.504 z m -25.1047,11.447 5.7923,-5.792 -5.7923,-5.793 -5.7923,5.793 5.7923,5.792 z m 2.1195,-23.3240004 -4.823,4.7910004 c -0.8015,0.796 -0.9155,0.939 -1.1397,1.429 -0.3141,0.687 -0.4227,1.835 -0.2684,1.991 0.4996,0.504 2.2657,-0.719 2.8805,-1.173 5.3838,-3.97 7.8363,-6.4710004 8.7068,-11.6120004 0.4425,-2.614 -0.9413,-3.62500003 -3.3897,-3.95800003 -3.8844,-0.529 -7.7391,0.012 -9.2481,2.93600003 0.2355,11.1660004 0.5672,4.781 3.8613,3.988 3.6645,-0.882 7.6048,-2.84 3.4203,1.608 z M 119.356,75.312215 c -0.359,2.244 0.078,2.794 1.569,2.106 1.015,-0.469 14.117,-8.09 16.03,-10.372 0.771,-0.919 1.54,-2.545 1.811,-4.008 0.167,-0.901 -0.103,-0.869 -1.073,-0.508 -2.249,0.836 -17.072,9.859 -17.536,10.674 -0.434,0.762 -0.712,1.552 -0.801,2.108 z m 9.143,-55.045 c 2.576,2.264 6.322,3.442 7.797,1.232 0.958,-1.434 2.517,-4.424 2.517,-4.424 0,0 -1.585,-2.394 -2.907,-3.423 -0.888,-0.692 -2.584,-0.98 -3.586,-0.436 -0.886,0.481 -1.919,1.871 -2.479,1.302 -0.349,-0.354 0.064,-1.749 0.567,-3.056 0.854,-2.2130004 4.67,-7.0190004 0.01,-11.11600043 -0.02,-0.007 -0.041,-0.012 -0.061,-0.017 L 129.64,2.1456561e-4 128.889,0.47321457 c -1.171,0.348 -0.947,3.08800003 -0.565,3.46200003 0.207,0.203 0.505,0.807 0.787,1.353 0.625,3.251 0.122,6.0410004 -1.151,9.1460004 -0.509,1.241 -0.88,2.507 -0.697,3.893 0.115,0.87 0.239,1.064 1.236,1.94 z"
     style="fill:#000000;stroke:none" />
</svg>
